recipes/kaizala/icon.svg

<svg height="80" viewBox="0 0 80 80" width="80" xmlns="http://www.w3.org/2000/svg"><path d="m74.19944 20.9142425c3.5420621 5.1991354 5.288812 10.5593103 5.7065454 16.3622194 1.3404138 18.6422008-11.8020833 35.2153172-29.8488596 38.1469355-20.805898 3.3798369-39.1747701-11.6970573-41.16135748-31.469028-.66054402-6.5727083-.29385042-13.2615843-.20366361-19.8941215.04707553-3.471076-.28988616-6.5781925-3.30916204-8.8840998-1.43307826-1.0943711-2.61194866-2.5327587-3.8676265-3.8519869-1.20414252-1.2648837-1.98708293-2.68831399-1.19522295-4.49365241.81168126-1.85120728 2.21304548-2.81096328 4.26107883-2.80797184 6.85122405.0099715 13.70244815.00049858 20.55367225-.00049857 6.0256679-.00049857 12.0518314-.05783465 18.0770038.01445866 9.2416699.11068355 17.443714 3.0652363 24.5015749 9.17277446 1.4400157 1.2464364 1.686295 2.0611072.1992038 3.5333978-8.4721089 8.387021-16.8872317 16.8343695-25.2285202 25.3530142-1.4563683 1.4877464-2.2948082 1.2464363-3.5757582-.1027064-2.9637763-3.1220738-6.0444982-6.1324669-9.1034166-9.1618058-1.856758-1.8392415-4.2506726-2.0521329-5.6827598-.5688736-1.4236632 1.4742849-1.1709419 3.8420155.683834 5.71865 4.131745 4.1810462 8.2813291 8.3451408 12.4442926 12.4952753 2.6763679 2.6683709 4.465238 2.6947954 7.1653914-.0079772 9.0702159-9.0785439 18.1047535-18.1934837 27.1591124-27.2884806.6897804-.69252 1.4271319-1.3361797 2.4246376-2.2655227" fill="#0078d6" fill-rule="evenodd"/></svg>

<?xml version="1.0" encoding="UTF-8"?>
<svg width="80px" height="80px" viewBox="0 0 80 80" version="1.1" xmlns="http://www.w3.org/2000/svg" xmlns:xlink="http://www.w3.org/1999/xlink">
    <!-- Generator: Sketch 54.1 (76490) - https://sketchapp.com -->
    <title>microsoft-kaizala</title>
    <desc>Created with Sketch.</desc>
    <g id="microsoft-kaizala" stroke="none" stroke-width="1" fill="none" fill-rule="evenodd">
        <path d="M74.19944,20.9142425 C77.7415021,26.1133779 79.488252,31.4735528 79.9059854,37.2764619 C81.2463992,55.9186627 68.1039021,72.4917791 50.0571258,75.4233974 C29.2512278,78.8032343 10.8823557,63.7263401 8.89576832,43.9543694 C8.2352243,37.3816611 8.6019179,30.6927851 8.69210471,24.0602479 C8.73918024,20.5891719 8.40221855,17.4820554 5.38294267,15.1761481 C3.94986441,14.081777 2.77099401,12.6433894 1.51531617,11.3241612 C0.31117365,10.0592775 -0.471766755,8.63584721 0.320093224,6.83050879 C1.13177448,4.97930151 2.5331387,4.01954551 4.58117205,4.02253695 C11.4323961,4.03250845 18.2836202,4.02303553 25.1348443,4.02203838 C31.1605122,4.02153981 37.1866757,3.96420373 43.2118481,4.03649704 C52.453518,4.14718059 60.6555621,7.10173334 67.713423,13.2092715 C69.1534387,14.4557079 69.399718,15.2703787 67.9126268,16.7426693 C59.4405179,25.1296903 51.0253951,33.5770388 42.6841066,42.0956835 C41.2277383,43.5834299 40.3892984,43.3421198 39.1083484,41.9929771 C36.1445721,38.8709033 33.0638502,35.8605102 30.0049318,32.8311713 C28.1481738,30.9919298 25.7542592,30.7790384 24.322172,32.2622977 C22.8985088,33.7365826 23.1512301,36.1043132 25.006006,37.9809477 C29.137751,42.1619939 33.2873351,46.3260885 37.4502986,50.476223 C40.1266665,53.1445939 41.9155366,53.1710184 44.61569,50.4682458 C53.6859059,41.3897019 62.7204435,32.2747621 71.7748024,23.1797652 C72.4645828,22.4872452 73.2019343,21.8435855 74.19944,20.9142425" id="Fill-1" fill="#0078D6"></path>
    </g>
</svg>
